resources/svg/solid/camera-plus.svg

<svg xmlns="http://www.w3.org/2000/svg" fill="currentColor" stroke="none" viewBox="0 0 24 24"><path d="M20 5h-2.586l-2.707-2.707A.996.996 0 0 0 14 2h-4a.996.996 0 0 0-.707.293L6.586 5H4c-1.103 0-2 .897-2 2v11c0 1.103.897 2 2 2h16c1.103 0 2-.897 2-2V7c0-1.103-.897-2-2-2zm-8 12c-2.71 0-5-2.29-5-5 0-2.711 2.29-5 5-5s5 2.289 5 5c0 2.71-2.29 5-5 5z"/><path d="M13 9h-2v2H9v2h2v2h2v-2h2v-2h-2z"/></svg>

<svg xmlns="http://www.w3.org/2000/svg" fill="currentColor" stroke="none" viewBox="0 0 24 24"><path d="M20,5h-2.586l-2.707-2.707C14.52,2.105,14.266,2,14,2h-4C9.734,2,9.48,2.105,9.293,2.293L6.586,5H4C2.897,5,2,5.897,2,7v11 c0,1.103,0.897,2,2,2h16c1.103,0,2-0.897,2-2V7C22,5.897,21.103,5,20,5z M12,17c-2.71,0-5-2.29-5-5c0-2.711,2.29-5,5-5s5,2.289,5,5 C17,14.71,14.71,17,12,17z"/><path d="M13 9L11 9 11 11 9 11 9 13 11 13 11 15 13 15 13 13 15 13 15 11 13 11z"/></svg>
